!!!COM: Haydn, Franz Joseph
!!!CDT: 1732/03/31-1809/05/31
!!!CNT: Austrian
!!!OTL: Sonata No. 16 in D major
!!!SCT: Hob. XVI:14
!!!OMV: Mvmt. 3
!!!OMD: Presto.
!!!ODT: 1760-1765
**kern	**kern	**dynam
*staff2	*staff1	*staff1/2
*>[A,A,B,B]	*>[A,A,B,B]	*>[A,A,B,B]
*>norep[A,B]	*>norep[A,B]	*>norep[A,B]
*>A	*>A	*>A
*clefF4	*clefG2	*clefG2
*k[f#c#]	*k[f#c#]	*k[f#c#]
*D:	*D:	*D:
*M2/4	*M2/4	*M2/4
*MM144	*MM144	*MM144
=1-	=1-	=1-
4r	8.dd (8.ff#L	p
.	16ee 16ggk	.
8r	8ff#` 8aa`)	.
8A`	8ee` 8gg`J	.
=2	=2	=2
4B	4dd 4ff#	.
4r	4r	.
=3	=3	=3
2G 2B	(16eeLL	.
.	16dd#	<
.	16ee	.
.	16ff#JJ	.
.	16ggLL	.
.	16aa	.
.	16bb	.
.	16ggJJ	[
=4	=4	=4
*^	*	*
8r	(4F#	16aaLL	.
.	.	16ff#	.
(4d	.	16ee	.
.	.	16ddJJ	>
.	4E	4ggT	.
8c#	.	.	.
.	.	ff#16qLL	.
.	.	gg16qJJ	.
=5	=5	=5	=5
4d)	4D)	4ff#)	]
4r	4ryy	4r	.
*v	*v	*	*
=6	=6	=6
4r	(8.d 8.f#L	.
.	16e 16gk	.
8r	8f#`) 8a`	.
8A`	8e` 8g`J	.
=7	=7	=7
4B	4d 4f#	.
4r	4r	.
!!LO:LB:g=z
=8	=8	=8
2F# 2A	(16dLL	.
.	16e	.
.	16f#	.
.	16gJJ	.
.	16aLL	<
.	16b	.
.	16cc#	.
.	16ddJJ	[[
=9	=9	=9
(8GL	16bLL	.
.	16dd	.
8F#	16a	.
.	16ddJJ	.
8E	16cc#LL	.
.	16gg	.
8DJ	16dd	.
.	16ff#JJ	.
=10	=10	=10
8A'L)	4cc# 4ee)	.
8E'J	.	.
4AA	4r	.
=11	=11	=11
*	*^	*
(16C#LL	(8.eeL	4.a	mf
16A	.	.	.
16G#	.	.	.
16AJJ	16ff#k	.	.
16C#LL	8gg`)	.	.
16A	.	.	.
16G#	8gg`J	8ee	.
16AJJ	.	.	.
=12	=12	=12	=12
16DLL	4ff#	4dd	.
16A	.	.	.
16G#	.	.	.
16AJJ	.	.	.
16DLL	4r	4ryy	.
16A	.	.	.
16G#	.	.	.
16AJJ	.	.	.
=13	=13	=13	=13
(16D#LL)	(8.ff#L	4.b	.
16B	.	.	.
16A#	.	.	.
16BJJ	16gg#k	.	.
16D#LL	8aa`)	.	.
16B	.	.	.
16A#	8aa`J	8ff#	.
16BJJ	.	.	.
!!LO:LB:g=z
=14	=14	=14	=14
16ELL	4gg#	4ee	.
16B	.	.	.
16A#	.	.	.
16BJJ	.	.	.
16ELL	4r	4ryy	.
16B	.	.	.
16A#	.	.	.
16BJJ	.	.	.
*	*v	*v	*
=15	=15	=15
8E 8G#)	16r	.
.	(16bbLL	.
8r	16aa	.
.	16gg#JJ	.
4r	16ff#LL	.
.	16ee	.
.	16dd#	.
.	16eeJJ)	.
*clefG2	*	*
=16	=16	=16
8f# 8a	16r	.
.	(16bbLL	.
8r	16aa	.
.	16gg#JJ	.
4r	16ff#LL	.
.	16ee	.
.	16dd#	.
.	16eeJJ)	.
=17	=17	=17
2g# 2b	16r	.
.	(16dddnLL	.
.	16ccc#	.
.	16bbJJ	.
.	16aaLL	.
.	16gg#	.
.	16ff#	.
.	16eeJJ	.
=18	=18	=18
.	(dd4qqP	.
16r	2cc#p))	.
(16ALL	.	.
16c#	.	.
16eJJ	.	.
8a`L)	.	.
8A`J	.	.
!!LO:LB:g=z
=19	=19	=19
*^	*	*
4a	4d	16r	p
.	.	(16ff#LL	.
.	.	16gg#	.
.	.	16aaJJ)	.
[4a	(4c#	16r	.
.	.	(16eeLL	.
.	.	16gg#	.
.	.	16aaJJ)	.
=20	=20	=20	=20
(8aL]	4B)	(16ddLL	.
.	.	16ff#	.
8g#J	.	16ee	.
.	.	16ddJJ	.
8a)	8A	16ddLL	.
.	.	16cc#	.
8rff	8rc	16b	.
.	.	)16aJJ	.
=21	=21	=21	=21
4a	4d	16r	mf
.	.	(16ff#LL	.
.	.	16gg#	.
.	.	16aaJJ)	.
[4a	(4c#	16r	.
.	.	(16eeLL	.
.	.	16gg#	.
.	.	16aaJJ)	.
=22	=22	=22	=22
(8aL]	4B)	(16ddLL	.
.	.	16ff#	.
8g#J	.	16ee	.
.	.	16ddJJ	.
8a)	8A	16ddLL	.
.	.	16cc#	.
8rff	8rc	16b	.
.	.	16aJJ)	.
*v	*v	*	*
*clefF4	*	*
=23	=23	=23
2Fn 2fn	16r	f
.	(16aLL	.
.	16dd#	.
.	16aJJ	.
.	16aaLL	.
.	16a	.
.	16dd#	.
.	16aJJ)	.
!!LO:LB:g=z
=24	=24	=24
2F#X 2f#X	16r	.
.	(16aLL	.
.	16dd#	.
.	16aJJ	.
.	16aaLL	.
.	16a	.
.	16dd#	.
.	16aJJ)	.
=25	=25	=25
2D# 2d#	16r	.
.	(16bLL	.
.	16ff#	.
.	16bJJ	.
.	16aaLL	.
.	16b	.
.	16ff#	.
.	16bJJ)	.
=26	=26	=26
2G# 2g#	16r	.
.	(16ddnLL	.
.	16ee	.
.	16ddJJ	.
.	16bbLL	.
.	16dd	.
.	16ee	.
.	16ddJJ)	.
=27	=27	=27
2E# 2e#	16r	.
.	(16ddLL	.
.	16gg#	.
.	16ddJJ	.
.	16bbLL	.
.	16dd	.
.	16gg#	.
.	16ddJJ)	.
=28	=28	=28
4F# 4f#	16r	.
.	(16cc#LL	.
.	16aa	.
.	16cc#JJ)	.
4D# 4d#	16r	.
.	(16bLL	.
.	16aa	.
.	16bJJ)	.
!!LO:LB:g=z
=29	=29	=29
4E 4e	16r	.
.	(16bLL	.
.	16gg#	.
.	16bJJ)	.
4G# 4g#	16r	.
.	(16ddnLL	.
.	16bb	.
.	16ddJJ)	.
=30	=30	=30
4A 4a	16r	.
.	(16cc#LL	.
.	16aa	.
.	16cc#JJ)	.
4D# 4d#	16r	.
.	(16cc#LL	.
.	16aa	.
.	16cc#JJ	.
=31	=31	=31
4E 4e	4b 4gg#)	.
4r	4r	.
=32	=32	=32
4r	8.a (8.cc#L	p
.	16b 16ddk	.
8r	8cc#` 8ee`)	.
8e`	8b` 8dd`J	.
=33	=33	=33
4f#	4a 4cc#	.
4r	4r	.
=34	=34	=34
4r	8.a (8.cc#L	.
.	16b 16ddk	.
8r	8cc#` 8ee`)	.
8e`	8b` 8dd`J	.
=35	=35	=35
4f#	4a 4cc#	.
4r	4r	.
=36	=36	=36
4r	8.a (8.cc#L	.
.	16b 16ddk	.
8r	8cc#` 8ee`)	.
8E`	8b` 8dd`J	.
!!LO:LB:g=z
=37	=37	=37
8F#`L	8a` 8cc#`L	.
8C#` 8A`J	8aa`J	.
.	(gg#16qqP	.
4D 4A	(8ff#pL)	.
.	16eeL	.
.	16ddJJ	.
=38	=38	=38
.	(dd16qqP	.
4E 4A	8cc#pL)	.
.	16bL	.
.	16aJJ	.
(4E 4G#	4bT	.
.	a16qLL	.
.	b16qJJ	.
=39	=39	=39
4AA 4A)	4a)	.
8r	(16eeLL	mf
.	16cc#	.
8c#`	16a	.
.	16eJJ	.
=40	=40	=40
(8dL	(8e#L)	.
8DJ)	8f#J)	.
8r	(16ddLL	.
.	16b	.
8E` 8B`	16g#	.
.	16enJJ	.
=41	=41	=41
(8AL	(8b#L)	.
8AAJ)	8cc#J)	.
8r	(16eeLL	.
.	16cc#	.
8c#`	16a	.
.	16eJJ	.
=42	=42	=42
(8dL	(8e#L)	.
8DJ)	8f#J)	.
8r	(16ddLL	.
.	16b	.
8E` 8B`	16g#	.
.	16enJJ	.
=43	=43	=43
(8AL	4a)	.
8AAJ)	.	.
4r	4r	.
!!LO:LB:g=z
=44:|!|:	=44:|!|:	=44:|!|:
*>B	*>B	*>B
*clefG2	*	*
*^	*	*
8rdd	2A	(16aLL	mf
.	.	16aa	.
(8c#L	.	16a	.
.	.	16aaJJ	.
8e	.	16aLL	.
.	.	16aa	.
8c#J)	.	16a	.
.	.	16aaJJ	.
=45	=45	=45	=45
8rdd	2A	16bLL	.
.	.	16gg#	.
(8BL	.	16b	.
.	.	16gg#JJ	.
8d	.	16bLL	.
.	.	16gg#	.
8BJ)	.	16b	.
.	.	16gg#JJ	.
=46	=46	=46	=46
8rdd	2A	16aLL	.
.	.	16ggn	.
(8c#L	.	16a	.
.	.	16ggJJ	.
8e	.	16aLL	.
.	.	16gg	.
8c#J)	.	16a	.
.	.	16ggJJ	.
=47	=47	=47	=47
8rdd	2A	16aLL	.
.	.	16ffn	.
(8dL	.	16a	.
.	.	16ffJJ	.
8fn	.	16aLL	.
.	.	16ff	.
8dJ)	.	16a	.
.	.	16ffJJ	.
=48	=48	=48	=48
8rdd	2A	16g#LL	.
.	.	16dd	.
(8BL	.	16g#	.
.	.	16ddJJ	.
8d	.	16g#LL	.
.	.	16dd	.
8BJ)	.	16g#	.
.	.	16ddJJ	.
!!LO:LB:g=z
=49	=49	=49	=49
4c#	4A	4a)	.
4r	4ryy	4r	.
*v	*v	*	*
=50	=50	=50
4r	8.dd (8.ffnL	p
.	16ee 16ggk	.
*clefF4	*	*
8r	8ff` 8aa`)	.
8A`	8ee` 8gg`J	.
=51	=51	=51
4B-	4dd 4ffn	.
4r	4r	.
=52	=52	=52
4r	8.dd (8.ffnL	.
.	16ee 16ggk	.
8r	8ff` 8aa`)	.
8A`	8ee` 8gg`J	.
=53	=53	=53
4B-	4dd 4ffn	.
4r	4r	.
=54	=54	=54
!	!	!LO:DY:rj
(2G^ 2B-^ 2e-^	(4.ee-	f
!	!LO:TUP:a	!
.	24ggLL	.
.	24aa	.
.	24bb-JJ	.
=55	=55	=55
4Fn 4d)	8aa`L)	.
.	8dd`J	.
.	(>ffn16qqP	.
(8GL	8eenpL	.
8AJ)	16ddL	.
.	16cc#XJJ	.
!!LO:LB:g=z
=56	=56	=56
4D	8ddL)	.
.	(8aJ	p
*clefG2	*	*
8r	[4b-)	.
(8d 8fn	.	.
=57	=57	=57
4.c#) 4.e	8b-L]	.
.	(8g#J	.
.	[4a)	.
(8d 8fn	.	.
=58	=58	=58
4.c#) 4.e	8aL]	.
.	(8b-J	.
.	)[4a	.
(8d 8fn	.	.
=59	=59	=59
8c#) 8eL	8aL]	<
(8d 8fn	(<8b-	.
8c# 8e	8a	.
8d 8fJ	8b-J	[
=60	=60	=60
4c#) 4e	8aL)	mf
.	(16eeL	.
.	16ffnJJ	.
.	aa16qqP	.
4r	8ggpL	.
.	16ffL	>
.	16eeJJ	.
=61	=61	=61
4r	8ffnL)	]
.	(8ddJ	p
8r	[4ee-)	.
(8g 8b-	.	.
!!LO:LB:g=z
=62	=62	=62
4.f#) 4.a	8ee-XL]	.
.	(8cc#XJ	.
.	[4dd)	.
(8g 8b-	.	.
=63	=63	=63
4.f#) 4.a	8ddL]	.
.	(8ee-J	.
.	[4dd)	.
(8g 8b-	.	.
=64	=64	=64
8f#) 8aL	8ddL]	.
(8g 8b-	(8ee-	.
8f# 8a	8dd	.
8g 8b-J	8ee-J	.
=65	=65	=65
4f#) 4a	)8ddL	mf
.	(16aaL	.
.	16bb-JJ	.
.	ddd16qqP	.
8r	8cccnpL	.
8f# 8dd	16bb-L	.
.	16aaJJ	.
=66	=66	=66
8g 8dd	16bb-LL)	.
.	(16gg	.
8r	16aa	.
.	16bb-JJ	.
8e 8ccn	16cccnLL	.
.	16bb-	.
8r	16aa	.
.	16ggJJ	.
=67	=67	=67
8fn 8ccn	16aaLL)	.
.	(16ffn	.
8r	16gg	.
.	16aaJJ	.
8d 8b-	16bb-LL	.
.	16aa	.
8r	16gg	.
.	16ffJJ	.
!!LO:LB:g=z
=68	=68	=68
8e 8b-	16ggLL)	.
.	(16ee	.
8r	16ffn	.
.	16ggJJ	.
8c# 8a	16aaLL	.
.	16gg	.
8r	16ff	.
.	16eeJJ)	.
=69	=69	=69
8d 8a	16r	p
.	(16ffnLL	.
8r	16ee	.
.	16ddJJ)	.
8e	16r	.
.	(16ggLL	.
8r	16ff	.
.	16eeJJ)	.
=70	=70	=70
8fn	(16aaLL	.
.	16ffn	.
8r	16ee	.
.	16ddJJ)	.
(8gL	(16bb-LL	.
.	16gg	.
8g#J	16ff	.
.	16eeJJ	.
=71	=71	=71
8a`L)	8ddTL	>
8A`J	8cc#XJ)	]
4r	4r	.
*clefF4	*	*
=72	=72	=72
*	*^	*
(16C#LL	(8.eeL	4.a	mf
16A	.	.	.
16G#	.	.	.
16AJJ	16ff#k	.	.
16C#LL	8gg`)	.	.
16A	.	.	.
16G#	8gg`J	8ee	.
16AJJ	.	.	.
!!LO:LB:g=z
=73	=73	=73	=73
16DLL	4ff#	4dd	.
16A	.	.	.
16G#	.	.	.
16AJJ	.	.	.
16DLL	4r	4ryy	.
16A	.	.	.
16G#	.	.	.
16AJJ	.	.	.
=74	=74	=74	=74
(16C#LL)	(8.eeL	4.a	.
16A	.	.	.
16G#	.	.	.
16AJJ	16ff#k	.	.
16C#LL	8gg`)	.	.
16A	.	.	.
16G#	8gg`J	8ee	.
16AJJ	.	.	.
=75	=75	=75	=75
16DLL	4ff#	4dd	.
16A	.	.	.
16G#	.	.	.
16AJJ	.	.	.
16DLL	4r	4ryy	.
16A	.	.	.
16G#	.	.	.
16AJJ	.	.	.
=76	=76	=76	=76
(16F#LL)	(8.aaL	4.dd	.
16d	.	.	.
16c#	.	.	.
16dJJ	16bbnk	.	.
16F#LL	8cccn`)	.	.
16d	.	.	.
16c#	8ccc`J	8aa	.
16dJJ	.	.	.
=77	=77	=77	=77
16GLL	4bb	4gg	.
16d	.	.	.
16c#	.	.	.
16dJJ	.	.	.
16GLL	4r	4ryy	.
16d	.	.	.
16c#	.	.	.
16dJJ)	.	.	.
!!LO:LB:g=z
=78	=78	=78	=78
(16G#LL	(8.bbL	4.ee	.
16e	.	.	.
16d#	.	.	.
16eJJ	16ccc#Xk	.	.
16G#LL	8ddd`)	.	.
16e	.	.	.
16d#	8ddd`J	8bb	.
16eJJ	.	.	.
=79	=79	=79	=79
16ALL	4ccc#	4aa	.
16e	.	.	.
16d#	.	.	.
16eJJ	.	.	.
16ALL	4r	4ryy	.
16e	.	.	.
16d#	.	.	.
16eJJ	.	.	.
*	*v	*v	*
=80	=80	=80
8A 8c#)	16r	.
.	(16eeLL	.
8r	16dd	.
.	16cc#JJ	.
4r	16bLL	.
.	16a	.
.	16g#	.
.	16aJJ)	.
=81	=81	=81
8B 8d	16r	.
.	(16eeLL	.
8r	16dd	.
.	16cc#JJ	.
4r	16bLL	.
.	16a	.
.	16g#	.
.	16aJJ)	.
=82	=82	=82
2c# 2e	16r	.
.	(16ggnLL	.
.	16ff#	.
.	16eeJJ	.
.	16ddLL	.
.	16cc#	.
.	16b	.
.	16aJJ	.
!!LO:LB:g=z
=83	=83	=83
.	g4qqP	.
16r	2f#p)	.
(16DLL	.	.
16F#	.	.
16AJJ	.	.
8d`L)	.	.
8D`J	.	.
=84	=84	=84
*^	*	*
4d	4G	16r	.
.	.	(16bLL	.
.	.	16cc#	.
.	.	16ddJJ)	.
[4d	(4F#	16r	.
.	.	(16aLL	.
.	.	16cc#	.
.	.	16ddJJ)	.
=85	=85	=85	=85
(8dL]	4E)	(16gLL	.
.	.	16b	.
8c#J	.	16a	.
.	.	16gJJ	.
8d)	8D	16gLL	.
.	.	16f#	.
8rc	8rBB	16e	.
.	.	16dJJ)	.
=86	=86	=86	=86
4d	4G	16r	.
.	.	(16bLL	mf
.	.	16cc#	.
.	.	16ddJJ)	.
[4d	(4F#	16r	.
.	.	(16aLL	.
.	.	16cc#	.
.	.	16ddJJ)	.
=87	=87	=87	=87
(8dL]	4E)	(16gLL	.
.	.	16b	.
8c#J	.	16a	.
.	.	16gJJ	.
8d)	8D	16gLL	.
.	.	16f#	.
8rc	8rBB	16e	.
.	.	16dJJ)	.
*v	*v	*	*
!!LO:LB:g=z
=88	=88	=88
2BB- 2B-	16r	f
.	(16dLL	.
.	16g#	.
.	16dJJ	.
.	16ddLL	.
.	16d	.
.	16g#	.
.	16dJJ)	.
=89	=89	=89
2BBn 2Bn	16r	.
.	(16dLL	.
.	16g#	.
.	16dJJ	.
.	16ddLL	.
.	16d	.
.	16g#	.
.	16dJJ)	.
=90	=90	=90
2GG# 2G#	16r	.
.	(16eLL	.
.	16b	.
.	16eJJ	.
.	16ddLL	.
.	16e	.
.	16b	.
.	16eJJ)	.
=91	=91	=91
2C# 2c#	16r	.
.	(16gnLL	.
.	16a	.
.	16gJJ	.
.	16eeLL	.
.	16g	.
.	16a	.
.	16gJJ)	.
=92	=92	=92
2AA# 2A#	16r	.
.	(16gLL	.
.	16cc#	.
.	16gJJ	.
.	16eeLL>	.
.	16g	.
.	16cc#	.
.	16gJJ)	.
!!LO:LB:g=z
=93	=93	=93
4BB 4B	16r	.
.	(16f#LL	.
.	16dd	.
.	16f#JJ)	.
4GG# 4G#	16r	.
.	(16eLL	.
.	16dd	.
.	16eJJ)	.
=94	=94	=94
4AA 4A	16r	.
.	(16eLL	.
.	16cc#	.
.	16eJJ)	.
4C# 4c#	16r	.
.	(16gnLL	.
.	16ee	.
.	16gJJ)	.
=95	=95	=95
4D 4d	16r	.
.	(16f#LL	.
.	16dd	.
.	16f#JJ)	.
4GG# 4G#	16r	.
.	(16f#LL	.
.	16dd	.
.	16f#JJ)	.
=96	=96	=96
4AA 4A	4e 4cc#	.
4r	4r	.
=97	=97	=97
4r	8.dd (8.ff#L	p
.	16ee 16ggk	.
8r	8ff#` 8aa`)	.
*clefG2	*	*
8a	8ee` 8gg`J	.
!!LO:LB:g=z
=98	=98	=98
4b	4dd 4ff#	.
4r	4r	.
=99	=99	=99
4r	8.dd (8.ff#L	.
.	16ee 16ggk	.
8r	8ff#` 8aa`)	.
8a`	8ee` 8gg`J	.
=100	=100	=100
4b	4dd 4ff#	.
4r	4r	.
=101	=101	=101
4r	8.dd (8.ff#L	.
.	16ee 16ggk	.
8r	8ff#` 8aa`)	.
*clefF4	*	*
8A`	8ee` 8gg`J	.
=102	=102	=102
8B`L	8dd` 8ff#`L	.
8F#` 8d`J	8ddd`J	.
.	(ccc#16qq	.
4G 4d	(8bbL)	.
.	16aaL	.
.	16ggJJ	.
=103	=103	=103
.	(gg16qq	.
4A 4d	8ff#L)	.
.	16eeL	.
.	16ddJJ	.
(4A 4c#	4eeT	.
.	dd16qLL	.
.	ee16qJJ	.
!!LO:LB:g=z
=104	=104	=104

4D )4d	4dd)	.
8r	(16aaLL	mf
.	16ff#	.
8f#`	16dd	.
.	16aJJ	.
=105	=105	=105
(8gL	(8a#L)	.
8GJ)	8bJ)	.
8r	(16ggLL	.
.	16ee	.
8A` 8e`	16cc#	.
.	16anJJ	.
=106	=106	=106
(8dL	(8cc#L)	.
8DJ)	8ddJ)	.
8r	(16aaLL	.
.	16ff#	.
8f#`	16dd	.
.	16aJJ	.
=107	=107	=107
(8gL	(8a#L)	.
8GJ)	8bJ)	.
8r	(16ggLL	.
.	16ee	.
8A` 8e`	16cc#	.
.	16anJJ	.
=108	=108	=108
(8dL	4dd)	.
8DJ)	.	.
4r	4r	.
==:|!	==:|!	==:|!
*-	*-	*-
!!!RDF**kern: > = above
!!!RDF**kern: < = below
!!!SMS: Universal Edition 1, Haydn Piano Sonatas, Vol. 1, No. 3
!!!ONB: Stich und Druck von Jos. Eberle & Co. Wien VII. Seidengasse 3-9
!!!ENC: Craig Stuart Sapp
!!!END: 2008/03/05
!!!EED: Craig Stuart Sapp
!!!EEV: 2021/02/01
